icon/social-twitter.svg

<svg xmlns="http://www.w3.org/2000/svg" id="svg100" width="39.87" height="40.33"><defs id="defs89"><style id="style87">.cls-1{fill:none;stroke:#000;stroke-linecap:round;stroke-linejoin:round;stroke-width:2px}</style></defs><g data-name="Layer 6" id="Layer_6" transform="translate(-11.65 -11.53)"><path class="cls-1" d="M50.47 17.15v29.08a4.64 4.64 0 0 1-4.62 4.63H17.27a4.64 4.64 0 0 1-4.62-4.62V17.15a4.64 4.64 0 0 1 4.62-4.62h28.58" id="path93" fill="none" stroke="#000" stroke-width="2" stroke-linecap="round" stroke-linejoin="round"/><circle cx="50.52" cy="13.82" r="1" id="circle95"/><path class="cls-1" d="M25.49 32.72a12.24 12.24 0 0 1-3.36-1.85 5.4 5.4 0 0 1-1.82-3.77c0-.58-.2-3.5.78-3.43.16 0 .3.15.4.27a11 11 0 0 0 .81.87 12 12 0 0 0 8.89 3.36A4.94 4.94 0 0 1 38.42 23a6.15 6.15 0 0 0 1.58.79 3.9 3.9 0 0 0 1.23 0l3-.34a18.05 18.05 0 0 0-2.56 3.93 18.35 18.35 0 0 0-.93 4.15 12.2 12.2 0 0 1-5.16 7.79 9.7 9.7 0 0 1-1.18.68 11.07 11.07 0 0 1-1.72.78l-.55.19-.61.17a18.33 18.33 0 0 1-8.61-.14l-1.17-.27-1.37-.38a10.48 10.48 0 0 0 4.76-1.46c.29-.17.59-.41.55-.73a.83.83 0 0 0-.38-.56 13.92 13.92 0 0 1-2.67-3.16" id="path97" fill="none" stroke="#000" stroke-width="2" stroke-linecap="round" stroke-linejoin="round"/></g></svg>

<?xml version="1.0" encoding="UTF-8" standalone="no"?>
<svg
   xmlns:dc="http://purl.org/dc/elements/1.1/"
   xmlns:cc="http://creativecommons.org/ns#"
   xmlns:rdf="http://www.w3.org/1999/02/22-rdf-syntax-ns#"
   xmlns:svg="http://www.w3.org/2000/svg"
   xmlns="http://www.w3.org/2000/svg"
   xmlns:sodipodi="http://sodipodi.sourceforge.net/DTD/sodipodi-0.dtd"
   xmlns:inkscape="http://www.inkscape.org/namespaces/inkscape"
   viewBox="0 0 39.869999 40.330101"
   version="1.1"
   id="svg100"
   sodipodi:docname="social-twitter.svg"
   width="39.869999"
   height="40.330101"
   inkscape:version="0.92.3 (2405546, 2018-03-11)">
  <metadata
     id="metadata104">
    <rdf:RDF>
      <cc:Work
         rdf:about="">
        <dc:format>image/svg+xml</dc:format>
        <dc:type
           rdf:resource="http://purl.org/dc/dcmitype/StillImage" />
        <dc:title></dc:title>
      </cc:Work>
    </rdf:RDF>
  </metadata>
  <sodipodi:namedview
     pagecolor="#ffffff"
     bordercolor="#666666"
     borderopacity="1"
     objecttolerance="10"
     gridtolerance="10"
     guidetolerance="10"
     inkscape:pageopacity="0"
     inkscape:pageshadow="2"
     inkscape:window-width="640"
     inkscape:window-height="480"
     id="namedview102"
     showgrid="false"
     fit-margin-top="0"
     fit-margin-left="0"
     fit-margin-right="0"
     fit-margin-bottom="0"
     inkscape:zoom="4.859375"
     inkscape:cx="20.35"
     inkscape:cy="19.86"
     inkscape:window-x="0"
     inkscape:window-y="0"
     inkscape:window-maximized="1"
     inkscape:current-layer="svg100" />
  <defs
     id="defs89">
    <style
       id="style87">.cls-1{fill:none;stroke:#000;stroke-linecap:round;stroke-linejoin:round;stroke-width:2px;}</style>
  </defs>
  <g
     data-name="Layer 6"
     id="Layer_6"
     transform="translate(-11.65,-11.5299)">
    <path
       class="cls-1"
       d="m 50.47,17.15 v 29.08 a 4.64,4.64 0 0 1 -4.62,4.63 H 17.27 A 4.64,4.64 0 0 1 12.65,46.24 V 17.15 a 4.64,4.64 0 0 1 4.62,-4.62 h 28.58"
       id="path93"
       inkscape:connector-curvature="0"
       style="fill:none;stroke:#000000;stroke-width:2px;stroke-linecap:round;stroke-linejoin:round" />
    <circle
       cx="50.52"
       cy="13.82"
       r="1"
       id="circle95" />
    <path
       class="cls-1"
       d="M 25.49,32.72 A 12.24,12.24 0 0 1 22.13,30.87 5.4,5.4 0 0 1 20.31,27.1 c 0,-0.58 -0.2,-3.5 0.78,-3.43 0.16,0 0.3,0.15 0.4,0.27 a 11,11 0 0 0 0.81,0.87 v 0 a 12,12 0 0 0 8.89,3.36 4.94,4.94 0 0 1 7.23,-5.17 6.15,6.15 0 0 0 1.58,0.79 3.9,3.9 0 0 0 1.23,0 l 3,-0.34 a 18.05,18.05 0 0 0 -2.56,3.93 18.35,18.35 0 0 0 -0.93,4.15 12.2,12.2 0 0 1 -5.16,7.79 c 0,0 0,0 0,0 A 9.7,9.7 0 0 1 34.4,40 v 0 a 11.07,11.07 0 0 1 -1.72,0.78 v 0 l -0.55,0.19 -0.61,0.17 A 18.33,18.33 0 0 1 22.91,41 l -1.17,-0.27 -1.37,-0.38 a 10.48,10.48 0 0 0 4.76,-1.46 c 0.29,-0.17 0.59,-0.41 0.55,-0.73 A 0.83,0.83 0 0 0 25.3,37.6 13.92,13.92 0 0 1 22.63,34.44"
       id="path97"
       inkscape:connector-curvature="0"
       style="fill:none;stroke:#000000;stroke-width:2px;stroke-linecap:round;stroke-linejoin:round" />
  </g>
</svg>
